X: 9
M:3/4
L:1/8
K:F
"Andantino"(3dcA|G2 G2 (3AGF|G2 G2 F/2E/2F/2G/2|A2 d2 e2|f3 e (3dcA|
a3 g fa|g3 f de|f3 d (3dcA|G4||
a3 g fa|g3 f de|f3 d (3dcA|c4 fg|
a3 g fa|g3 f de|f3 d d/2c/2A/2G/2|F4 GA|

